X: 31605
T: Pamela's Pasta Party
R: polka
M: 2/4
K: Dmixolydian
|:D>E FG|Ad cA|A/B/A/G/ ED|EF G2|
D>E FG|Ad cA|A/B/A/G/ EG|ED D2:|
|:d>e dc|eA ce|d>e dc|ea ag|
d>e dc|eA ce|d/e/d/c/ AG|ED D2:|
|:d>e fd|gf dg|fd gf|dg a2|
d>e fd|gf dc|A/B/A/G/ EG|ED D2:|

